X: 1
T: Little Brown Jug
M: 2/4
L: 1/16
K: D
   A2 | "D"F2A2 A3 B | "G"G2B2 B3 B | "A7"cccc B2c2 |1 "D"d2e2 f2 :|2 "D"e2d2 d2 |]
|: de | "D"f2d2 A2F2 | "G"G2B2 B3 B | "A7"cccc B2c2 |1 "D"d2e2 f2 :|2 "D"e2d2 d2 |]
